X: 2091
Q: "Reel."
M: C
L: 1/8
K: C
c2(ec) egec | (Bd)dc (Bd)de |\
c2(ec) egec | BagB c3 ::\
uA |\
(vGF)EF GABc | (Bd)dc Bcde |\
[1 cGEF GABc | BagB c3 :|\
[2 cedf egfa | gefd c3 |]


